X:221
T:O'Callaghan's Hornpipe 
B:CRE2.308 (CornphÃÂÃÂÃÂÃÂ­opa UÃÂÃÂÃÂÃÂ­ CheallachÃÂÃÂÃÂÃÂ¡in)
F:file ID: cre.2/221ocall_H
S:Denis Murphy
N:|eABA| in m.1 first time only, |edBA| thereafter
L:1/8
M:C
R:hornpipe
Q:150
K:G
Bd|(3efg fg e[dA]BA|GABd dBGE|DEGA BABd|(3efg fg edBd|
g2fg edBd|geaf gfed|(3BdB GB (3AcA FA|G2 GF G2:|
(3|:efg|afge dega|bBBA G2 (3efg|afge dega|beed e2de|
fe (3def gfeg|(3faf (3def gfea|(3gab af gfed|1 Bded e2:|\
[2 Bded e2gf||X:043

%%%

